X:1
T:Title
%%score [ ( 1 2 ) ( 3 4 ) ] { ( 5 6 ) | 7 }
L:1/8
Q:1/4=120
M:4/4
K:A
V:1 treble nm="Midi_74"
V:2 treble 
V:3 bass nm="Midi_74"
V:4 bass 
V:5 treble nm="Org."
V:6 treble 
V:7 bass 
V:1
 c8 | B4 B4 | A8 || e8 | d4 d4 | c4 c4 | B8 || A8 | G4 G4 | F8 || d8 | %11
 c4"^William Henry Havergal\n(1793-1870)" c4 | B4 B4 | A8 |] %14
V:2
 A8 | A4 G4 | A8 || E8 | A4 B4 | B4 A4 | G8 || F8 | F4 ^E4 | F8 || (E6 B2) | B4 A4 | A4 G4 | A8 |] %14
V:3
 E8 | F4 (E2 D2) | C8 || A,8 | A,4 E4 | E4 E4 | E8 || C8 | D4 (C2 B,2) | A,8 || (B,6 E2) | E4 E4 | %12
 F4 (E2 D2) | C8 |] %14
V:4
 A,8 | D,4 E,4 | F,8 || C,8 | F,4 G,4 | A,4 A,,4 | E,8 || F,8 | B,,4 C,4 | D,8 || G,,8 | A,,4 C,4 | %12
 D,4 E,4 | A,,8 |] %14
V:5
 [Ac]8 | B4 [GB]4 | A8 || e8 | d4 d4 | c4 c4 | B8 || A8 | G4 [^EG]4 | F8 || [EBd]8 | c4 c4 | %12
 B4 [GB]4 | A8 |] %14
V:6
 E8 | [FA]4 E2 D2 | [CA]8 || [EA]8 | A4 [EB]4 | [EB]4 [EA]4 | [EG]8 || [CF]8 | [DF]4 C2 B,2 | %9
 [A,F]8 || x8 | [EB]4 [EA]4 | [FA]4 E2 D2 | [CA]8 |] %14
V:7
 A,8 | D,4 E,4 | F,8 || C,8 | F,4 G,4 | A,4 A,,4 | E,8 || F,8 | B,,4 C,4 | D,8 || G,,8 | A,,4 C,4 | %12
 D,4 E,4 | A,,8 |] %14

